X:1
T:冬景色
T:冬景色
T:Fuyu Geshiki
T:文部省唱歌 Ministry of Education 
T:ローマ字-Romaji
T:１．さ霧消ゆる　湊江の 舟に白し　朝の霜 ただ水鳥の　声はして いまだ覚めず　岸の家
T:２．烏啼きて　木に高く 人は畑に　麦を踏む げに小春日の　のどけしや かえり咲の　花も見ゆ
T:３．嵐吹きて　雲は落ち 時雨降りて　日は暮れぬ 若し燈火の　漏れ来ずば それと分かじ　野辺の里
T:1913
C:文部省唱歌　Ministry of Education
Z:1913
L:1/8
Q:1/4=100
M:3/4
K:G
V:1 treble nm="Piano" snm="Pno."
V:1
"G" G2 B2 d2 | d3 c B2 |"D7" A3 B AF |"G" D4 z2 |"D7" D2 F2 A2 |"G" B3 A G2 |"Am7" B3 A"D7" GF | %7
w: １．さ ぎ り|き ゆ る|み な と え|の|ふ ね に|し ろ し|あ さ の し|
w: ２．か ら す|な き て|き に た か|く|ひ と は|は た に|む ぎ を ふ|
w: ３．あ ら し|ふ き て|く も は お|ち|し ぐ れ|ふ り て|ひ は く れ|
"G" G4 z2 |"D7" A4 D2 |"G" GA Bc d2 |"C" e3 d cB |"D7" A4 z2 |"G" B2 A2 G2 |"D7" D3 E D2 | %14
w: も|た だ|み ず と り の|こ え は し|て|い ま だ|さ め ず|
w: む|げ に|こ は る び の|の ど け し|や|か え り|ざ き の|
w: ぬ|も し|と も し び の|も れ こ ず|ば|そ れ と|わ か じ|
"G" B3 A"D7" GF |"G" G4 z2 |]"G" G2 B2 d2 | d3 c B2 |"D7" A3 B AF |"G" D4 z2 |"D7" D2 F2 A2 | %21
w: き し の い|え|１．Sa- gi- ri|ki- yu- ru|mi- na- to- e|no|fu- ne ni|
w: は な も み|ゆ|２．Ka- ra- su-|na ki- te|ki ni ta- ka-|ku|hi- to wa|
w: の べ の さ|と|３．A- ra- shi|fu- ki- te|ku- mo wa o-|chi|shi- gu- re|
"G" B3 A G2 |"Am7" B3 A"D7" GF |"G" G4 z2 |"D7" A4 D2 |"G" GA Bc d2 |"C" e3 d cB |"D7" A4 z2 | %28
w: shi- ro- shi|a- sa no shi-|mo|ta- da|mi- zu- to- ri no|ko- e wa shi-|te|
w: ha- ta ni|mu- gi wo fu-|mu|ge ni|ko- ha- ru- bi no|no do ke shi|ya|
w: fu- ri- te|hi wa ku- re-|nu|mo- shi|to- mo- shi- bi no|mo- re ko- zu-|ba|
"G" B2 A2 G2 |"D7" D3 E D2 |"G" B3 A"D7" GF |"G" G4 z2 |] %32
w: i- ma- da|sa- me- zu|ki- shi no i-|e.|
w: ka- e- ri|za- ki no|ha- na mo mi-|yu.|
w: so- re- to|wa- ka- ji|no- be no sa-|to.|

